X:42
%%score 1 2
%%pagewidth 7in
T:Lord Willoughby
M:C
L:1/4
K:G
V:1 clef-treble
V:2 clef-bass octave=-1
V:1
[^DFB]|BB ee & [EG]2 [EG]2|(d>c) B (c/d/) & F2 G2|[Ge]E [CEG][CFA]|
w:The fifteenth* day of Ju-*ly, With* glist'-ring sword and
V:2
B,|E2 C2|D2 G,2|C2 B,A,|
V:1
[B,DGB]3 [DGB]| BB e[ce] & [EG]2 [EG]E|(d>c) Bc/d/ & [FA]2 G2|[Ge]E [EG][EA]|
w:shield, A fa-mous fight in Flan* ders Was* fought-en in the
V:2
G,D GF|ED CA,|DD, G,A,/B,/|C2 CC|
V:1
[^DFB]3||[B,DB]|[B,EG][B,F] [B,EG][EA]|B>B B[EGB] & [^DF]3x|[CEB][CFA] [B,GB][Gc]|[FAd]3 d/d/ & x3 [FA]|
w:field: The most cou-ra-geous of-*ficers Were English* Captains* three; But the 
V:2
B,3||B,|E^D EC|B,3 G,|CD GE|D3C|
V:1
[Gd]2 Bc/d/ & x2G2|[Ge]2 [GB]A/G/ & x3B,|[B,F][G,E] [B,E][B,^D]|[B,E]3||
w: bra vest in the bat tle Was* brave Lord Wil-lough-by. 
V:2
B,2 G,A,/B,/|C2 E[E,E]|[B,^D][CE] [B,F][B,F]|[EG]3||

